X:1
T:There’s Peace in My Heart
T:Daniel Brink Towner
T:There’s Peace in My Heart
T:Public Domain
T:Public Domain
C:Daniel Brink Towner
Z:Public Domain
%%score ( 1 2 ) ( 3 4 )
L:1/8
M:6/8
K:F
V:1 treble 
V:2 treble 
V:3 bass 
V:4 bass 
V:1
 [FA] | [Ac]>[GB][FA] (G<A)[EG] | F3- F2 F | ([EG][FA])[GB] [Gc]2 [FA] | [EG]3- [EG]2 [EG] | %5
w: 1.~There’s|peace in my heart * to-|So * sweet,|and * strong; And in-|to * my|
w: 2.~There’s|joy in my heart * to-|So * full,|so * deep; The Fa-|ther * of|
w: 3.~The|Lord to my heart * has|He * deigns|with * me; He cleans-|es * my|
 [FA]>[FB][Fc] [CF]2 [CF] | (FG)[FA] [FB]2 [DG] | (FE)[CF] [FA]2 [EG] | F6 | [Fc]3 [CF]3 | %10
w: life has dawned a light,|Which * fills my heart|song. * Peace, peace, wond-|ful|Peace from|
w: love hath given to me|The * gift of gifts|keep. * Joy, joy, wonder-|joy,|in my|
w: life from stain of sin|That * I like Him|be. * Sing, sing, joy-|ly|Sing of|
 [DB][Dc][Fd] [Fc]3 | [F=B]>[FA][FG] [FA]2 [FB] | (E2 F G3) | [Fc]3 [CF]3 | [DB][Dc][Fd] [Fc]3 | %15
w: the heart of God;|Peace, peace, wond- er- ful|peace, * *|from the|heart of God. *|
w: heart to- night; Joy,|joy, wonder- ful joy, Joy|in * *|heart to-|night. * * *|
w: His love to me,|Sing, sing, joy- ful- ly|sing, * *|of His|love to me. *|
 [FA][FG]F [FA]2 [EG] | F6 |] %17
w: ||
w: ||
w: ||
V:2
 x | x3 E2 x | F3- F2 F | x6 | x6 | x6 | C2 x4 | C2 x4 | F6 | x6 | x6 | x6 | c6 | x6 | x6 | %15
w: |night,|and * still,||||with|er-|peace,||||Peace|||
w: |night,|so * pure,||||to|ful|Joy||||my|||
w: |come;|to * dwell||||may|ful-|sing,||||Sing|||
 x2 F x3 | F6 |] %17
w: ||
w: ||
w: ||
V:3
 F, | F,>F,[F,C] [C,C]2 [C,B,] | [F,A,]3- [F,A,]2 [F,A,] | (B,A,)[G,C] [E,C]2 [F,C] | %4
 [C,C]3- [C,C]2 [C,C] | [F,C]>[F,B,][F,A,] [F,A,]2 [F,A,] | (A,B,)[F,C] [B,,D]2 [B,,B,] | %7
 (A,G,)[C,A,] [C,C]2 [C,B,] | [F,A,]6 | [F,A,]6 | [B,,F,][B,,F,][B,,B,] [F,A,]3 | %11
 [G,D]>[G,C][G,=B,] [G,B,]2 G, | (G,2 A, B,3) | [F,A,]6 | [B,,F,][B,,F,][B,,B,] [F,A,]3 | %15
 [C,C][C,B,][C,A,] [C,C]2 [C,B,] | [F,A,]6 |] %17
V:4
 F, | F,>F, x4 | x6 | C2 x4 | x6 | x6 | F,2 x4 | C,2 x4 | x6 | x6 | x6 | x5 G, | C,6 | x6 | x6 | %15
 x6 | x6 |] %17

